assets/images/tools/strapi.svg

<svg fill="none" height="64" viewBox="0 0 200 64" width="200" xmlns="http://www.w3.org/2000/svg"><path d="m0 0h200v64h-200z" fill="#fff"/><g transform="translate(25 16)"><path d="m66.9873 16.5235c0 2.8938 1.6816 5.1 4.5754 5.1s4.5754-2.2062 4.5754-5.1-1.6816-5.1-4.5754-5.1-4.5754 2.2062-4.5754 5.1z" fill="#8e75ff"/><path d="m0 2.74996c0-1.51875 1.23121-2.74996 2.75-2.74996h26c1.5188 0 2.75 1.23121 2.75 2.75v26c0 1.5188-1.2312 2.75-2.75 2.75h-26c-1.51878 0-2.75-1.2312-2.75-2.75z" fill="#8e75ff"/><path d="m37.5 10.75c0-1.51879 1.2312-2.75 2.75-2.75h17c1.5188 0 2.75 1.23121 2.75 2.75v17c0 1.5188-1.2312 2.75-2.75 2.75h-17c-1.5188 0-2.75-1.2312-2.75-2.75z" fill="#8e75ff"/><path d="m11 8h9.5v15.5h-9.5z" fill="#fff"/><g fill="#4945ff"><path d="m85.3234 11.7991h3.3673v9.4516h4.8247v2.8938h-8.192z"/><path d="m94.7507 18.0034c0-3.0859 2.2062-6.4531 6.0503-6.4531 3.845 0 6.051 3.3672 6.051 6.4531 0 3.0858-2.206 6.453-6.051 6.453-3.8441 0-6.0503-3.3672-6.0503-6.453zm8.7343 0c0-1.4318-1.003-3.1135-2.684-3.1135-1.68 0-2.683 1.6817-2.683 3.1135s1.003 3.1134 2.683 3.1134c1.681 0 2.684-1.6816 2.684-3.1134z"/><path d="m108.312 18.0034c0-3.0859 2.206-6.4531 6.051-6.4531 3.844 0 6.05 3.3672 6.05 6.4531 0 3.0858-2.206 6.453-6.05 6.453-3.845 0-6.051-3.3672-6.051-6.453zm8.734 0c0-1.4318-1.003-3.1135-2.683-3.1135-1.681 0-2.684 1.6817-2.684 3.1135s1.003 3.1134 2.684 3.1134c1.68 0 2.683-1.6816 2.683-3.1134z"/><path d="m122.18 18.0033c0-3.2382 2.331-6.4804 6.425-6.4804 2.769 0 4.476 1.4043 5.225 3.336h-3.305c-.437-.6236-1.042-.9975-2.045-.9975-1.805 0-2.933 1.7541-2.933 4.1419 0 2.3879 1.128 4.1421 2.933 4.1421 1.003 0 1.608-.4015 2.045-1.0251h3.305c-.749 1.9593-2.456 3.3361-5.225 3.3361-4.094 0-6.425-3.2422-6.425-6.4531z"/><path d="m135.488 11.7991h3.367v12.3454h-3.367z"/></g></g></svg>

<?xml version="1.0" encoding="UTF-8" standalone="no"?>
<svg width="200" height="64" viewBox="0 0 200 64" fill="none" xmlns="http://www.w3.org/2000/svg">
  <!-- 白色背景 -->
  <rect width="200" height="64" fill="white"/>
  
  <!-- Strapi Logo -->
  <g transform="translate(25, 16)">
    <path d="M66.9873 16.5235C66.9873 19.4173 68.6689 21.6235 71.5627 21.6235C74.4565 21.6235 76.1381 19.4173 76.1381 16.5235C76.1381 13.6297 74.4565 11.4235 71.5627 11.4235C68.6689 11.4235 66.9873 13.6297 66.9873 16.5235Z" fill="#8E75FF"/>
    <path d="M0 2.74996C0 1.23121 1.23121 0 2.75 0H28.75C30.2688 0 31.5 1.23121 31.5 2.75V28.75C31.5 30.2688 30.2688 31.5 28.75 31.5H2.75C1.23122 31.5 0 30.2688 0 28.75V2.74996Z" fill="#8E75FF"/>
    <path d="M37.5 10.75C37.5 9.23121 38.7312 8 40.25 8H57.25C58.7688 8 60 9.23121 60 10.75V27.75C60 29.2688 58.7688 30.5 57.25 30.5H40.25C38.7312 30.5 37.5 29.2688 37.5 27.75V10.75Z" fill="#8E75FF"/>
    <path d="M11 8H20.5V23.5H11V8Z" fill="white"/>
    <path d="M85.3234 11.7991H88.6907V21.2507H93.5154V24.1445H85.3234V11.7991Z" fill="#4945FF"/>
    <path d="M94.7507 18.0034C94.7507 14.9175 96.9569 11.5503 100.801 11.5503C104.646 11.5503 106.852 14.9175 106.852 18.0034C106.852 21.0892 104.646 24.4564 100.801 24.4564C96.9569 24.4564 94.7507 21.0892 94.7507 18.0034ZM103.485 18.0034C103.485 16.5716 102.482 14.8899 100.801 14.8899C99.121 14.8899 98.118 16.5716 98.118 18.0034C98.118 19.4352 99.121 21.1168 100.801 21.1168C102.482 21.1168 103.485 19.4352 103.485 18.0034Z" fill="#4945FF"/>
    <path d="M108.312 18.0034C108.312 14.9175 110.518 11.5503 114.363 11.5503C118.207 11.5503 120.413 14.9175 120.413 18.0034C120.413 21.0892 118.207 24.4564 114.363 24.4564C110.518 24.4564 108.312 21.0892 108.312 18.0034ZM117.046 18.0034C117.046 16.5716 116.043 14.8899 114.363 14.8899C112.682 14.8899 111.679 16.5716 111.679 18.0034C111.679 19.4352 112.682 21.1168 114.363 21.1168C116.043 21.1168 117.046 19.4352 117.046 18.0034Z" fill="#4945FF"/>
    <path d="M122.18 18.0033C122.18 14.7651 124.511 11.5229 128.605 11.5229C131.374 11.5229 133.081 12.9272 133.83 14.8589H130.525C130.088 14.2353 129.483 13.8614 128.48 13.8614C126.675 13.8614 125.547 15.6155 125.547 18.0033C125.547 20.3912 126.675 22.1454 128.48 22.1454C129.483 22.1454 130.088 21.7439 130.525 21.1203H133.83C133.081 23.0796 131.374 24.4564 128.605 24.4564C124.511 24.4564 122.18 21.2142 122.18 18.0033Z" fill="#4945FF"/>
    <path d="M135.488 11.7991H138.855V24.1445H135.488V11.7991Z" fill="#4945FF"/>
  </g>
</svg>
